X:1
T:[ID 7-131]
T:[ID 7-131]
T:Bezeichnung standardisiert: Polonaise Polonoise
T:Urheber unbekannt Erstbeleg: 1776-1791 (Datum in der schriftlichen Quelle) Datum in der hier transkribierten schriftlichen Quelle: 1796
C:Urheber unbekannt
C:Erstbeleg: 1776-1791 (Datum in der schriftlichen Quelle)
C:Datum in der hier transkribierten schriftlichen Quelle: 1796
L:1/8
M:3/4
K:D
V:1 treble 
V:1
 d2 A/G/F/E/ Df | e2 c/A/E/C/ A,g | ff/a/ gg/e/ ff/d/ | c/d/e/d/ cc/B/ A2 | d2 A/G/F/E/ Df | %5
 e2 c/A/E/C/ A,g | f/g/a/f/ eg fe/d/ | c/d/e/f/ d2 D2 :: D/F/A/d/ D/F/A/d/ D/F/A/d/ | %9
 BB/A/ BB/A/ G2 | E/^G/B/e/ E/G/B/e/ E/G/B/e/ | cc/B/ cc/B/ A2 | dd/e/ ff/d/ e2 | %13
 d/c/d/e/ f/e/f/d/ e2 | d>A B>G A>F | E/F/G/E/ D2 D2 :| %16

